X:645
T:The Boodulum
B:C K Sharpe's Ms Music Book c1835
N:"Irish"
Z:Nigel Gatherer - IRTRAD  gatherer@argonet.co.uk
Q: 290
M:9/8
L:1/8
K:D
Bcd ABG FED|Bcd ABG FGA|Bcd ABG FEF|DED AGF EFA:|
BEE BAG FED|BEE BAG FGA|BEE BAG FEF|DED AGF EFA:|
d2 d dfd cBA|d2 d dfa gfe|d2 d dfd cBA|dcB ABG FGA:|
